images/noun_X_2500111.svg

<?xml version="1.0" encoding="UTF-8" standalone="no"?>
<svg
   xmlns:dc="http://purl.org/dc/elements/1.1/"
   xmlns:cc="http://creativecommons.org/ns#"
   xmlns:rdf="http://www.w3.org/1999/02/22-rdf-syntax-ns#"
   xmlns:svg="http://www.w3.org/2000/svg"
   xmlns="http://www.w3.org/2000/svg"
   xmlns:xlink="http://www.w3.org/1999/xlink"
   xmlns:sodipodi="http://sodipodi.sourceforge.net/DTD/sodipodi-0.dtd"
   xmlns:inkscape="http://www.inkscape.org/namespaces/inkscape"
   version="1.1"
   preserveAspectRatio="none"
   x="0px"
   y="0px"
   viewBox="0 0 100 100"
   id="svg15"
   sodipodi:docname="noun_X_2500111.svg"
   width="100"
   height="100"
   inkscape:version="1.0 (b51213c273, 2020-08-10)">
  <metadata
     id="metadata19">
    <rdf:RDF>
      <cc:Work
         rdf:about="">
        <dc:format>image/svg+xml</dc:format>
        <dc:type
           rdf:resource="http://purl.org/dc/dcmitype/StillImage" />
        <dc:title></dc:title>
      </cc:Work>
    </rdf:RDF>
  </metadata>
  <sodipodi:namedview
     pagecolor="#ffffff"
     bordercolor="#666666"
     borderopacity="1"
     objecttolerance="10"
     gridtolerance="10"
     guidetolerance="10"
     inkscape:pageopacity="0"
     inkscape:pageshadow="2"
     inkscape:window-width="1920"
     inkscape:window-height="1052"
     id="namedview17"
     showgrid="false"
     inkscape:zoom="7.24"
     inkscape:cx="50"
     inkscape:cy="62.5"
     inkscape:window-x="0"
     inkscape:window-y="0"
     inkscape:window-maximized="1"
     inkscape:current-layer="svg15" />
  <defs
     id="defs5">
    <g
       id="a">
      <path
         fill="#000000"
         stroke="none"
         d="m 80,14.35 -30,30 -30,-30 -5.65,5.65 30,30 -30,30 5.65,5.65 30,-30 30,30 5.65,-5.65 -30,-30 30,-30 z"
         id="path2" />
    </g>
  </defs>
  <g
     id="g9">
    <use
       xlink:href="#a"
       id="use7"
       x="0"
       y="0"
       width="100%"
       height="100%" />
  </g>
</svg>

<svg xmlns="http://www.w3.org/2000/svg" xmlns:xlink="http://www.w3.org/1999/xlink" version="1.1" preserveAspectRatio="none" x="0px" y="0px" viewBox="0 0 100 125"><defs><g id="a"><path fill="#000000" stroke="none" d=" M 80 14.35 L 50 44.35 20 14.35 14.35 20 44.35 50 14.35 80 20 85.65 50 55.65 80 85.65 85.65 80 55.65 50 85.65 20 80 14.35 Z"/></g></defs><g transform="matrix( 1, 0, 0, 1, 0,0) "><use xlink:href="#a"/></g><text x="0" y="115" fill="#000000" font-size="5px" font-weight="bold" font-family="'Helvetica Neue', Helvetica, Arial-Unicode, Arial, Sans-serif">Created by Richard Kunák</text><text x="0" y="120" fill="#000000" font-size="5px" font-weight="bold" font-family="'Helvetica Neue', Helvetica, Arial-Unicode, Arial, Sans-serif">from the Noun Project</text></svg>
